;FLAVOR:Marlin
;TIME:9553
;Filament used: 6.41578m
;Layer height: 0.2
;MINX:36.9
;MINY:58.9
;MINZ:0.2
;MAXX:183.1
;MAXY:161.1
;MAXZ:15.6
;Generated with Cura_SteamEngine 5.3.1
M140 S70
M105
M190 S70
M104 S200
M105
M109 S200
M82 ;absolute extrusion mode
; Ender 3 S1 Pro Start G-code
G28 ;Home
G92 E0 ;Reset Extruder
G1 Z2.0 F3000 ;Move Z Axis up
G1 X10.1 Y20 Z0.28 F5000.0 ;Move to start position
G1 X10.1 Y200.0 Z0.28 F1500.0 E15 ;Draw the first line
G1 X10.4 Y200.0 Z0.28 F5000.0 ;Move to side a little
G1 X10.4 Y20 Z0.28 F1500.0 E30 ;Draw the second line
G92 E0 ;Reset Extruder
G1 Z2.0 F3000 ;Move Z Axis up

G92 E0
G92 E0
G1 F1500 E-6
;LAYER_COUNT:78
;LAYER:0
M107
G0 F6000 X42.835 Y61.766 Z0.2
;TYPE:SKIRT
G1 F1500 E0
G1 F1200 X43.362 Y61.414 E0.02108
G1 X43.712 Y61.196 E0.03479
G1 X44.499 Y60.753 E0.06483
G1 X44.994 Y60.519 E0.08304
G1 X45.271 Y60.397 E0.09311
G1 X46.268 Y60.019 E0.12857
G1 X46.633 Y59.902 E0.14132
G1 X47.549 Y59.655 E0.17287
G1 X47.916 Y59.574 E0.18538
G1 X48.805 Y59.418 E0.2154
G1 X49.422 Y59.358 E0.23601
G1 X50.257 Y59.313 E0.26383
G1 X51.028 Y59.3 E0.28947
G1 X169.088 Y59.305 E4.21616
G1 X169.644 Y59.313 E4.23466
G1 X170.257 Y59.34 E4.25507
G1 X170.792 Y59.38 E4.27291
G1 X171.689 Y59.488 E4.30296
G1 X172.815 Y59.739 E4.34133
G1 X173.358 Y59.893 E4.3601
G1 X174.215 Y60.178 E4.39014
G1 X175.22 Y60.625 E4.42673
G1 X175.652 Y60.846 E4.44287
G1 X176.506 Y61.336 E4.47561
G1 X176.845 Y61.553 E4.489
G1 X177.583 Y62.073 E4.51903
G1 X178.388 Y62.765 E4.55434
G1 X178.716 Y63.078 E4.56941
G1 X179.437 Y63.84 E4.60431
G1 X179.691 Y64.138 E4.61733
G1 X180.246 Y64.851 E4.64738
G1 X180.586 Y65.362 E4.6678
G1 X180.804 Y65.712 E4.68151
G1 X181.247 Y66.499 E4.71155
G1 X181.481 Y66.994 E4.72976
G1 X181.603 Y67.271 E4.73983
G1 X181.981 Y68.268 E4.77529
G1 X182.098 Y68.633 E4.78804
G1 X182.345 Y69.549 E4.81959
G1 X182.426 Y69.916 E4.83209
G1 X182.582 Y70.805 E4.86211
G1 X182.642 Y71.422 E4.88273
G1 X182.687 Y72.257 E4.91054
G1 X182.7 Y73.029 E4.93622
G1 X182.695 Y147.086 E7.39937
G1 X182.687 Y147.652 E7.4182
G1 X182.658 Y148.292 E7.4395
G1 X182.618 Y148.811 E7.45682
G1 X182.509 Y149.707 E7.48684
G1 X182.268 Y150.785 E7.52358
G1 X182.127 Y151.287 E7.54092
G1 X181.727 Y152.441 E7.58154
G1 X181.607 Y152.73 E7.59195
G1 X181.224 Y153.547 E7.62196
G1 X180.985 Y153.979 E7.63838
G1 X180.758 Y154.366 E7.65331
G1 X180.267 Y155.124 E7.68334
G1 X179.784 Y155.754 E7.70975
G1 X179.194 Y156.431 E7.73962
G1 X178.935 Y156.703 E7.75211
G1 X178.169 Y157.428 E7.78719
G1 X177.862 Y157.69 E7.80061
G1 X177.15 Y158.245 E7.83064
G1 X176.654 Y158.576 E7.85047
G1 X176.424 Y158.72 E7.8595
G1 X175.564 Y159.203 E7.8923
G1 X175.155 Y159.407 E7.9075
G1 X174.021 Y159.889 E7.94849
G1 X173.754 Y159.984 E7.95791
G1 X172.891 Y160.249 E7.98794
G1 X172.012 Y160.444 E8.01788
G1 X171.121 Y160.591 E8.04792
G1 X170.564 Y160.642 E8.06652
G1 X169.76 Y160.686 E8.0933
G1 X169.064 Y160.7 E8.11646
G1 X50.912 Y160.695 E12.04621
G1 X50.356 Y160.687 E12.0647
G1 X49.662 Y160.653 E12.08781
G1 X49.13 Y160.609 E12.10557
G1 X48.234 Y160.495 E12.13561
G1 X47.237 Y160.271 E12.1696
G1 X46.705 Y160.123 E12.18796
G1 X45.847 Y159.842 E12.21799
G1 X44.877 Y159.419 E12.25319
G1 X44.429 Y159.195 E12.26985
G1 X43.372 Y158.585 E12.31044
G1 X43.016 Y158.35 E12.32463
G1 X42.285 Y157.819 E12.35468
G1 X41.612 Y157.234 E12.38434
G1 X41.236 Y156.877 E12.40158
G1 X40.332 Y155.899 E12.44588
G1 X40.149 Y155.673 E12.45555
G1 X39.398 Y154.615 E12.4987
G1 X39.162 Y154.233 E12.51364
G1 X38.722 Y153.444 E12.54368
G1 X38.479 Y152.924 E12.56277
G1 X38.379 Y152.693 E12.57115
G1 X38.03 Y151.766 E12.60409
G1 X37.909 Y151.39 E12.61723
G1 X37.659 Y150.467 E12.64903
G1 X37.575 Y150.087 E12.66198
G1 X37.42 Y149.197 E12.69202
G1 X37.356 Y148.538 E12.71405
G1 X37.313 Y147.732 E12.74089
G1 X37.3 Y147.063 E12.76315
G1 X37.305 Y72.914 E15.22935
G1 X37.313 Y72.348 E15.24818
G1 X37.342 Y71.714 E15.26929
G1 X37.382 Y71.191 E15.28673
G1 X37.49 Y70.295 E15.31675
G1 X37.739 Y69.186 E15.35455
G1 X37.893 Y68.643 E15.37333
G1 X38.178 Y67.786 E15.40337
G1 X38.621 Y66.789 E15.43965
G1 X38.842 Y66.356 E15.45582
G1 X39.411 Y65.379 E15.49343
G1 X39.645 Y65.024 E15.50757
G1 X40.175 Y64.293 E15.5376
G1 X40.773 Y63.606 E15.56789
G1 X41.069 Y63.295 E15.58217
G1 X41.825 Y62.577 E15.61685
G1 X42.123 Y62.322 E15.6299
G1 X42.835 Y61.766 E15.65994
G0 F6000 X42.613 Y61.433
G1 F1200 X43.151 Y61.074 E15.68145
G1 X43.516 Y60.847 E15.69575
G1 X44.328 Y60.391 E15.72672
G1 X44.833 Y60.153 E15.74529
G1 X45.129 Y60.023 E15.75605
G1 X46.146 Y59.638 E15.79221
G1 X46.529 Y59.516 E15.80558
G1 X47.463 Y59.264 E15.83776
G1 X47.847 Y59.18 E15.85083
G1 X48.766 Y59.02 E15.88186
G1 X49.4 Y58.959 E15.90304
G1 X50.25 Y58.913 E15.93136
G1 X51.028 Y58.9 E15.95724
G1 X169.094 Y58.905 E19.88413
G1 X169.662 Y58.913 E19.90302
G1 X170.287 Y58.941 E19.92383
G1 X170.84 Y58.983 E19.94227
G1 X171.737 Y59.091 E19.97232
G1 X172.924 Y59.354 E20.01276
G1 X173.484 Y59.513 E20.03212
G1 X174.341 Y59.798 E20.06216
G1 X175.402 Y60.269 E20.10077
G1 X175.851 Y60.499 E20.11755
G1 X176.722 Y60.999 E20.15095
G1 X177.075 Y61.226 E20.16491
G1 X177.844 Y61.77 E20.19624
G1 X178.664 Y62.476 E20.23223
G1 X179.007 Y62.803 E20.24799
G1 X179.728 Y63.565 E20.28289
G1 X180.007 Y63.892 E20.29718
G1 X180.562 Y64.605 E20.32723
G1 X180.926 Y65.151 E20.34906
G1 X181.153 Y65.516 E20.36336
G1 X181.609 Y66.328 E20.39433
G1 X181.847 Y66.833 E20.4129
G1 X181.977 Y67.129 E20.42365
G1 X182.362 Y68.146 E20.45982
G1 X182.484 Y68.529 E20.47319
G1 X182.736 Y69.463 E20.50536
G1 X182.82 Y69.847 E20.51844
G1 X182.98 Y70.766 E20.54946
G1 X183.041 Y71.4 E20.57065
G1 X183.087 Y72.25 E20.59896
G1 X183.1 Y73.029 E20.62487
G1 X183.095 Y147.092 E23.08822
G1 X183.087 Y147.67 E23.10745
G1 X183.057 Y148.323 E23.12919
G1 X183.015 Y148.859 E23.14707
G1 X182.906 Y149.755 E23.17709
G1 X182.653 Y150.893 E23.21586
G1 X182.505 Y151.418 E23.23401
G1 X182.105 Y152.572 E23.27463
G1 X181.969 Y152.9 E23.28644
G1 X181.574 Y153.741 E23.31734
G1 X181.33 Y154.181 E23.33408
G1 X181.094 Y154.583 E23.34958
G1 X180.603 Y155.341 E23.37962
G1 X180.086 Y156.017 E23.40793
G1 X179.484 Y156.707 E23.43838
G1 X179.21 Y156.994 E23.45158
G1 X178.429 Y157.732 E23.48732
G1 X178.108 Y158.005 E23.50133
G1 X177.372 Y158.578 E23.53236
G1 X176.866 Y158.915 E23.55258
G1 X176.62 Y159.069 E23.56223
G1 X175.743 Y159.561 E23.59568
G1 X175.334 Y159.765 E23.61088
G1 X174.155 Y160.266 E23.65348
G1 X173.871 Y160.366 E23.6635
G1 X172.978 Y160.64 E23.69457
G1 X172.077 Y160.839 E23.72526
G1 X171.186 Y160.986 E23.75529
G1 X170.586 Y161.041 E23.77533
G1 X169.768 Y161.086 E23.80258
G1 X169.064 Y161.1 E23.826
G1 X50.906 Y161.095 E27.75595
G1 X50.336 Y161.087 E27.77491
G1 X49.629 Y161.052 E27.79845
G1 X49.08 Y161.006 E27.81678
G1 X48.184 Y160.892 E27.84682
G1 X47.13 Y160.656 E27.88274
G1 X46.581 Y160.503 E27.9017
G1 X45.687 Y160.209 E27.933
G1 X44.698 Y159.777 E27.9689
G1 X44.25 Y159.553 E27.98556
G1 X43.152 Y158.919 E28.02773
G1 X42.781 Y158.674 E28.04251
G1 X42.05 Y158.143 E28.07256
G1 X41.337 Y157.524 E28.10397
G1 X40.942 Y157.149 E28.12208
G1 X40.038 Y156.171 E28.16638
G1 X39.823 Y155.905 E28.17776
G1 X39.072 Y154.847 E28.22091
G1 X38.813 Y154.428 E28.23729
G1 X38.373 Y153.639 E28.26734
G1 X38.112 Y153.083 E28.28777
G1 X38.005 Y152.834 E28.29678
G1 X37.649 Y151.889 E28.33037
G1 X37.523 Y151.495 E28.34413
G1 X37.268 Y150.553 E28.37659
G1 X37.181 Y150.156 E28.3901
G1 X37.022 Y149.236 E28.42116
G1 X36.957 Y148.559 E28.44378
G1 X36.913 Y147.74 E28.47106
G1 X36.9 Y147.063 E28.49358
G1 X36.905 Y72.908 E30.95998
G1 X36.913 Y72.33 E30.97921
G1 X36.943 Y71.683 E31.00075
G1 X36.985 Y71.143 E31.01877
G1 X37.093 Y70.247 E31.04878
G1 X37.354 Y69.077 E31.08865
G1 X37.513 Y68.517 E31.10802
G1 X37.812 Y67.624 E31.13934
G1 X38.265 Y66.607 E31.17637
G1 X38.496 Y66.155 E31.19325
G1 X39.077 Y65.159 E31.2316
G1 X39.321 Y64.789 E31.24634
G1 X39.873 Y64.03 E31.27756
G1 X40.483 Y63.33 E31.30844
G1 X40.779 Y63.019 E31.32272
G1 X41.565 Y62.273 E31.35876
G1 X41.877 Y62.007 E31.3724
G1 X42.613 Y61.433 E31.40344
G1 F1500 E25.40344
;MESH:RAKTracker-Lid.stl
G0 F6000 X79.796 Y107.473
G0 X84.788 Y115.2
;TYPE:WALL-OUTER
G1 F1500 E31.40344
G1 F1200 X84.244 Y115.146 E31.42163
G1 X83.967 Y115.096 E31.43099
G1 X83.373 Y114.944 E31.45138
G1 X82.977 Y114.79 E31.46551
G1 X82.627 Y114.631 E31.4783
G1 X82.279 Y114.431 E31.49165
G1 X81.796 Y114.104 E31.51105
G1 X81.471 Y113.819 E31.52543
G1 X81.269 Y113.623 E31.53479
G1 X80.943 Y113.252 E31.55121
G1 X80.718 Y112.96 E31.56347
G1 X80.438 Y112.507 E31.58119
G1 X80.209 Y112.034 E31.59867
G1 X80.071 Y111.658 E31.61199
G1 X79.934 Y111.171 E31.62881
G1 X79.855 Y110.788 E31.64182
G1 X79.8 Y110.254 E31.65967
G1 X79.815 Y109.602 E31.68137
G1 X79.853 Y109.235 E31.69364
G1 X79.955 Y108.714 E31.7113
G1 X80.101 Y108.244 E31.72766
G1 X80.306 Y107.75 E31.74545
G1 X80.487 Y107.416 E31.75809
G1 X80.7 Y107.063 E31.7718
G1 X81.092 Y106.569 E31.79278
G1 X81.362 Y106.278 E31.80598
G1 X81.654 Y106.019 E31.81896
G1 X81.865 Y105.85 E31.82795
G1 X82.282 Y105.566 E31.84473
G1 X82.524 Y105.427 E31.85402
G1 X82.963 Y105.215 E31.87023
G1 X83.458 Y105.034 E31.88776
G1 X84.089 Y104.872 E31.90943
G1 X84.792 Y104.8 E31.93293
G1 X135.002 Y104.8 E33.60292
G1 X135.377 Y104.81 E33.6154
G1 X135.784 Y104.859 E33.62904
G1 X136.293 Y104.963 E33.64631
G1 X136.646 Y105.063 E33.65852
G1 X137.021 Y105.209 E33.6719
G1 X137.373 Y105.369 E33.68476
G1 X137.718 Y105.567 E33.69799
G1 X138.204 Y105.896 E33.71751
G1 X138.632 Y106.271 E33.73644
G1 X138.97 Y106.634 E33.75294
G1 X139.294 Y107.058 E33.77068
G1 X139.508 Y107.405 E33.78424
G1 X139.78 Y107.939 E33.80418
G1 X139.932 Y108.351 E33.81878
G1 X140.065 Y108.827 E33.83522
G1 X140.124 Y109.111 E33.84487
G1 X140.183 Y109.587 E33.86082
G1 X140.199 Y109.881 E33.87061
G1 X140.185 Y110.399 E33.88785
G1 X140.147 Y110.763 E33.90002
G1 X140.046 Y111.272 E33.91728
G1 X139.898 Y111.757 E33.93415
G1 X139.692 Y112.252 E33.95198
G1 X139.505 Y112.598 E33.96506
G1 X139.231 Y113.024 E33.98191
G1 X138.836 Y113.52 E34.003
G1 X138.451 Y113.895 E34.02087
G1 X138.134 Y114.15 E34.0344
G1 X137.719 Y114.432 E34.05109
G1 X137.477 Y114.573 E34.06041
G1 X137.038 Y114.785 E34.07662
G1 X136.559 Y114.961 E34.09359
G1 X135.936 Y115.121 E34.11499
G1 X135.522 Y115.173 E34.12886
G1 X135.017 Y115.2 E34.14569
G1 X84.788 Y115.2 E35.81631
G1 F1500 E29.81631
G0 F6000 X84.736 Y115.697
G0 X135.049 Y115.78
G0 X135.046 Y149.718
G0 X169.488 Y150.3
G1 F1500 E35.81631
G1 F1200 X169.836 Y150.284 E35.8279
G1 X170.257 Y150.2 E35.84217
G1 X170.561 Y150.092 E35.8529
G1 X170.816 Y149.97 E35.86231
G1 X171.123 Y149.787 E35.87419
G1 X171.369 Y149.584 E35.8848
G1 X171.579 Y149.374 E35.89468
G1 X171.791 Y149.117 E35.90576
G1 X172.006 Y148.756 E35.91974
G1 X172.133 Y148.454 E35.93063
G1 X172.216 Y148.18 E35.94015
G1 X172.272 Y147.895 E35.94981
G1 X172.296 Y147.646 E35.95813
G1 X172.299 Y72.497 E38.4576
G1 X172.282 Y72.156 E38.46896
G1 X172.215 Y71.817 E38.48045
G1 X172.141 Y71.574 E38.4889
G1 X172.007 Y71.245 E38.50071
G1 X171.788 Y70.877 E38.51496
G1 X171.585 Y70.632 E38.52554
G1 X171.374 Y70.421 E38.53546
G1 X171.162 Y70.247 E38.54459
G1 X170.938 Y70.097 E38.55355
G1 X170.695 Y69.967 E38.56272
G1 X170.454 Y69.867 E38.5714
G1 X170.18 Y69.784 E38.58092
G1 X169.904 Y69.73 E38.59027
G1 X169.641 Y69.705 E38.59906
G1 X50.513 Y69.701 E42.56127
G1 X50.157 Y69.718 E42.57313
G1 X49.815 Y69.787 E42.58473
G1 X49.571 Y69.86 E42.5932
G1 X49.245 Y69.993 E42.60491
G1 X48.877 Y70.212 E42.61916
G1 X48.632 Y70.415 E42.62974
G1 X48.421 Y70.626 E42.63966
G1 X48.248 Y70.838 E42.64876
G1 X48.095 Y71.067 E42.65792
G1 X47.972 Y71.296 E42.66657
G1 X47.864 Y71.557 E42.67596
G1 X47.786 Y71.818 E42.68503
G1 X47.705 Y72.222 E42.69873
G1 X47.7 Y147.503 E45.20259
G1 X47.717 Y147.836 E45.21368
G1 X47.784 Y148.18 E45.22533
G1 X47.859 Y148.428 E45.23395
G1 X47.991 Y148.749 E45.24549
G1 X48.21 Y149.114 E45.25965
G1 X48.421 Y149.374 E45.27079
G1 X48.619 Y149.572 E45.2801
G1 X48.84 Y149.753 E45.2896
G1 X49.063 Y149.903 E45.29854
G1 X49.302 Y150.031 E45.30756
G1 X49.542 Y150.131 E45.31621
G1 X49.82 Y150.216 E45.32588
G1 X50.096 Y150.27 E45.33523
G1 X50.359 Y150.296 E45.34402
G1 X169.488 Y150.3 E49.30627
G1 F1500 E43.30627
G0 F6000 X169.489 Y149.8
G0 X84.763 Y149.717
G0 X84.768 Y115.781
G0 X84.778 Y115.6
;TYPE:WALL-INNER
G1 F1500 E49.30627
G1 F1200 X84.19 Y115.542 E49.32592
G1 X83.89 Y115.489 E49.33605
G1 X83.274 Y115.333 E49.35719
G1 X82.813 Y115.155 E49.37362
G1 X82.48 Y115.005 E49.38577
G1 X82.074 Y114.775 E49.40129
G1 X81.559 Y114.426 E49.42198
G1 X81.193 Y114.106 E49.43815
G1 X80.985 Y113.905 E49.44777
G1 X80.626 Y113.496 E49.46587
G1 X80.383 Y113.179 E49.47916
G1 X80.088 Y112.7 E49.49787
G1 X79.833 Y112.172 E49.51737
G1 X79.7 Y111.811 E49.53016
G1 X79.552 Y111.294 E49.54805
G1 X79.459 Y110.849 E49.56317
G1 X79.399 Y110.244 E49.58339
G1 X79.415 Y109.584 E49.60535
G1 X79.46 Y109.159 E49.61957
G1 X79.557 Y108.659 E49.63651
G1 X79.725 Y108.108 E49.65566
G1 X79.954 Y107.56 E49.67542
G1 X80.145 Y107.21 E49.68868
G1 X80.386 Y106.813 E49.70413
G1 X80.783 Y106.314 E49.72534
G1 X81.054 Y106.02 E49.73863
G1 X81.391 Y105.717 E49.75371
G1 X81.62 Y105.533 E49.76348
G1 X82.082 Y105.22 E49.78204
G1 X82.33 Y105.077 E49.79156
G1 X82.807 Y104.847 E49.80917
G1 X83.301 Y104.664 E49.8267
G1 X84.028 Y104.476 E49.85167
G1 X84.772 Y104.4 E49.87654
G1 X135.012 Y104.4 E51.54753
G1 X135.397 Y104.41 E51.56034
G1 X135.864 Y104.467 E51.57599
G1 X136.379 Y104.572 E51.59347
G1 X136.764 Y104.68 E51.60677
G1 X137.185 Y104.844 E51.6218
G1 X137.52 Y104.995 E51.63402
G1 X137.923 Y105.223 E51.64942
G1 X138.441 Y105.574 E51.67023
G1 X138.896 Y105.969 E51.69027
G1 X139.294 Y106.398 E51.70974
G1 X139.618 Y106.822 E51.72749
G1 X139.856 Y107.209 E51.7426
G1 X140.137 Y107.756 E51.76305
G1 X140.31 Y108.22 E51.77952
G1 X140.457 Y108.745 E51.79765
G1 X140.517 Y109.032 E51.80741
G1 X140.583 Y109.566 E51.8253
G1 X140.599 Y109.881 E51.83579
G1 X140.585 Y110.417 E51.85363
G1 X140.542 Y110.828 E51.86737
G1 X140.437 Y111.359 E51.88537
G1 X140.284 Y111.864 E51.90292
G1 X140.07 Y112.387 E51.92172
G1 X139.865 Y112.774 E51.93628
G1 X139.55 Y113.265 E51.95569
G1 X139.144 Y113.776 E51.97739
G1 X138.702 Y114.207 E51.99793
G1 X138.398 Y114.452 E52.01091
G1 X137.939 Y114.767 E52.02943
G1 X137.693 Y114.911 E52.03891
G1 X137.194 Y115.153 E52.05736
G1 X136.697 Y115.337 E52.07498
G1 X135.979 Y115.519 E52.09962
G1 X135.544 Y115.573 E52.1142
G1 X135.039 Y115.6 E52.13102
G1 X84.778 Y115.6 E53.80271
G1 F1500 E47.80271
G0 F6000 X84.766 Y115.7
G0 X83.852 Y115.666
G0 X83.849 Y149.717
G0 X50.378 Y149.896
G1 F1500 E53.80271
G1 F1200 X169.479 Y149.9 E57.76402
G1 X169.788 Y149.886 E57.77431
G1 X170.15 Y149.814 E57.78658
G1 X170.52 Y149.681 E57.79966
G1 X170.892 Y149.459 E57.81407
G1 X171.099 Y149.288 E57.823
G1 X171.283 Y149.105 E57.83163
G1 X171.463 Y148.886 E57.84106
G1 X171.648 Y148.575 E57.8531
G1 X171.811 Y148.186 E57.86712
G1 X171.896 Y147.628 E57.8859
G1 X171.899 Y72.507 E60.38443
G1 X171.884 Y72.205 E60.39449
G1 X171.807 Y71.813 E60.40778
G1 X171.648 Y71.424 E60.42175
G1 X171.46 Y71.108 E60.43398
G1 X171.289 Y70.902 E60.44289
G1 X171.004 Y70.617 E60.45629
G1 X170.523 Y70.329 E60.47494
G1 X170.083 Y70.173 E60.49047
G1 X169.622 Y70.105 E60.50597
G1 X50.523 Y70.101 E64.46721
G1 X50.207 Y70.116 E64.47774
G1 X49.809 Y70.196 E64.49124
G1 X49.424 Y70.352 E64.50506
G1 X49.108 Y70.54 E64.51728
G1 X48.902 Y70.711 E64.52619
G1 X48.62 Y70.993 E64.53945
G1 X48.334 Y71.468 E64.5579
G1 X48.174 Y71.915 E64.57369
G1 X48.105 Y72.26 E64.58539
G1 X48.1 Y147.493 E67.08765
G1 X48.115 Y147.788 E67.09747
G1 X48.195 Y148.195 E67.11127
G1 X48.35 Y148.569 E67.12473
G1 X48.538 Y148.884 E67.13693
G1 X48.808 Y149.216 E67.15117
G1 X49.27 Y149.56 E67.17033
G1 X49.792 Y149.808 E67.18955
G1 X50.378 Y149.896 E67.20926
G1 F1500 E61.20926
G0 F6000 X50.362 Y149.793
G0 X84.768 Y149.717
G0 X84.768 Y115.781
G0 X84.747 Y115.96
;TYPE:SKIN
G1 F1500 E67.20926
G1 F1200 X84.166 Y115.903 E67.22867
G1 X83.832 Y115.846 E67.23994
G1 X83.158 Y115.673 E67.26309
G1 X82.67 Y115.485 E67.28048
G1 X82.249 Y115.291 E67.2959
G1 X81.875 Y115.074 E67.31028
