;FLAVOR:Marlin
;TIME:2355
;Filament used: 1.48568m
;Layer height: 0.2
;MINX:36.907
;MINY:73.179
;MINZ:0.2
;MAXX:183.089
;MAXY:125.35
;MAXZ:3.6
;Generated with Cura_SteamEngine 5.3.1
M140 S70
M105
M190 S70
M104 S200
M105
M109 S200
M82 ;absolute extrusion mode
; Ender 3 S1 Pro Start G-code
G28 ;Home
G92 E0 ;Reset Extruder
G1 Z2.0 F3000 ;Move Z Axis up
G1 X10.1 Y20 Z0.28 F5000.0 ;Move to start position
G1 X10.1 Y200.0 Z0.28 F1500.0 E15 ;Draw the first line
G1 X10.4 Y200.0 Z0.28 F5000.0 ;Move to side a little
G1 X10.4 Y20 Z0.28 F1500.0 E30 ;Draw the second line
G92 E0 ;Reset Extruder
G1 Z2.0 F3000 ;Move Z Axis up

G92 E0
G92 E0
G1 F1500 E-6
;LAYER_COUNT:18
;LAYER:0
M107
G0 F6000 X44.626 Y75.681 Z0.2
;TYPE:SKIRT
G1 F1500 E0
G1 F1200 X45.411 Y75.237 E0.03
G1 X45.969 Y74.974 E0.05051
G1 X46.608 Y74.696 E0.07369
G1 X47.451 Y74.373 E0.10372
G1 X47.955 Y74.219 E0.12125
G1 X48.428 Y74.088 E0.13757
G1 X49.415 Y73.867 E0.17121
G1 X50.064 Y73.755 E0.19311
G1 X51.363 Y73.615 E0.23657
G1 X51.994 Y73.588 E0.25758
G1 X52.43 Y73.579 E0.27208
G1 X167.442 Y73.582 E4.0974
G1 X168.208 Y73.594 E4.12288
G1 X169.137 Y73.651 E4.15383
G1 X169.491 Y73.689 E4.16567
G1 X170.144 Y73.781 E4.18761
G1 X170.594 Y73.859 E4.2028
G1 X171.476 Y74.052 E4.23283
G1 X171.997 Y74.206 E4.2509
G1 X172.651 Y74.418 E4.27376
G1 X173.676 Y74.812 E4.31029
G1 X174.06 Y74.984 E4.32428
G1 X174.856 Y75.384 E4.35391
G1 X175.152 Y75.549 E4.36518
G1 X175.635 Y75.835 E4.38385
G1 X175.923 Y76.017 E4.39518
G1 X176.879 Y76.701 E4.43428
G1 X177.262 Y77.01 E4.45065
G1 X177.751 Y77.431 E4.47211
G1 X178.028 Y77.685 E4.48461
G1 X178.841 Y78.521 E4.5234
G1 X179.245 Y78.987 E4.54391
G1 X179.951 Y79.902 E4.58235
G1 X180.134 Y80.169 E4.59311
G1 X180.573 Y80.869 E4.6206
G1 X180.834 Y81.325 E4.63807
G1 X181.273 Y82.183 E4.67013
G1 X181.48 Y82.64 E4.68681
G1 X181.816 Y83.479 E4.71687
G1 X181.957 Y83.913 E4.73205
G1 X182.107 Y84.412 E4.74938
G1 X182.28 Y85.065 E4.77185
G1 X182.345 Y85.348 E4.78151
G1 X182.486 Y86.086 E4.8065
G1 X182.549 Y86.497 E4.82033
G1 X182.63 Y87.169 E4.84284
G1 X182.652 Y87.425 E4.85138
G1 X182.689 Y88.339 E4.88181
G1 X182.687 Y88.836 E4.89834
G1 X182.647 Y89.696 E4.92697
G1 X182.587 Y90.373 E4.94958
G1 X182.581 Y90.526 E4.95467
G1 X182.41 Y92.396 E5.01713
G1 X182.252 Y94.915 E5.10108
G1 X182.165 Y97.448 E5.18537
G1 X182.149 Y100.02 E5.27092
G1 X182.205 Y102.522 E5.35416
G1 X182.333 Y105.075 E5.43918
G1 X182.534 Y107.618 E5.52402
G1 X182.653 Y108.912 E5.56724
G1 X182.689 Y109.794 E5.5966
G1 X182.688 Y110.271 E5.61247
G1 X182.631 Y111.329 E5.64771
G1 X182.583 Y111.78 E5.66279
G1 X182.497 Y112.401 E5.68364
G1 X182.449 Y112.685 E5.69322
G1 X182.262 Y113.557 E5.72289
G1 X182.188 Y113.841 E5.73265
G1 X181.974 Y114.554 E5.75741
G1 X181.776 Y115.136 E5.77785
G1 X181.289 Y116.319 E5.8204
G1 X181.078 Y116.752 E5.83642
G1 X180.64 Y117.557 E5.86691
G1 X180.486 Y117.812 E5.87681
G1 X179.995 Y118.55 E5.9063
G1 X179.612 Y119.075 E5.92791
G1 X178.771 Y120.085 E5.97162
G1 X178.4 Y120.476 E5.98955
G1 X177.75 Y121.103 E6.01959
G1 X177.324 Y121.459 E6.03805
G1 X176.681 Y121.967 E6.06531
G1 X175.573 Y122.729 E6.11004
G1 X175.178 Y122.964 E6.12532
G1 X174.027 Y123.554 E6.16834
G1 X173.387 Y123.832 E6.19155
G1 X172.543 Y124.154 E6.22159
G1 X172.016 Y124.314 E6.23991
G1 X171.384 Y124.487 E6.26171
G1 X170.209 Y124.735 E6.30165
G1 X169.724 Y124.808 E6.31796
G1 X168.42 Y124.92 E6.36149
G1 X166.873 Y124.95 E6.41295
G1 X52.572 Y124.943 E10.21462
G1 X52.012 Y124.935 E10.23325
G1 X51.308 Y124.901 E10.25669
G1 X50.638 Y124.845 E10.27905
G1 X49.445 Y124.673 E10.31914
G1 X49.132 Y124.609 E10.32977
G1 X48.553 Y124.473 E10.34955
G1 X48.241 Y124.39 E10.36029
G1 X47.486 Y124.158 E10.38656
G1 X47.124 Y124.031 E10.39932
G1 X46.354 Y123.725 E10.42688
G1 X45.963 Y123.551 E10.44111
G1 X45.19 Y123.167 E10.46982
G1 X44.874 Y122.993 E10.48182
G1 X43.798 Y122.309 E10.52422
G1 X43.176 Y121.857 E10.5498
G1 X42.33 Y121.177 E10.5859
G1 X41.636 Y120.508 E10.61796
G1 X41.233 Y120.085 E10.63739
G1 X40.638 Y119.411 E10.66729
G1 X40.042 Y118.615 E10.70037
G1 X39.805 Y118.268 E10.71434
G1 X39.223 Y117.305 E10.75177
G1 X38.931 Y116.756 E10.77245
G1 X38.42 Y115.638 E10.81334
G1 X38.185 Y115.029 E10.83505
G1 X37.897 Y114.173 E10.86509
G1 X37.763 Y113.652 E10.88298
G1 X37.66 Y113.206 E10.8982
G1 X37.515 Y112.453 E10.92371
G1 X37.45 Y112.028 E10.93801
G1 X37.368 Y111.327 E10.96148
G1 X37.345 Y111.049 E10.97076
G1 X37.31 Y110.144 E11.00088
G1 X37.313 Y109.668 E11.01671
G1 X37.352 Y108.843 E11.04418
G1 X37.596 Y106.049 E11.13747
G1 X37.754 Y103.469 E11.22344
G1 X37.837 Y100.973 E11.3065
G1 X37.849 Y98.402 E11.39202
G1 X37.789 Y95.872 E11.47619
G1 X37.66 Y93.387 E11.55895
G1 X37.457 Y91.052 E11.63691
G1 X37.446 Y90.786 E11.64576
G1 X37.341 Y89.545 E11.68718
G1 X37.307 Y88.498 E11.72202
G1 X37.315 Y88.066 E11.7364
G1 X37.365 Y87.23 E11.76425
G1 X37.394 Y86.943 E11.77385
G1 X37.503 Y86.164 E11.80001
G1 X37.604 Y85.602 E11.819
G1 X37.86 Y84.501 E11.8566
G1 X38.133 Y83.666 E11.88581
G1 X38.362 Y83.044 E11.90786
G1 X38.838 Y81.952 E11.94748
G1 X39.042 Y81.55 E11.96247
G1 X39.433 Y80.849 E11.98917
G1 X39.759 Y80.33 E12.00956
G1 X39.938 Y80.061 E12.0203
G1 X40.691 Y79.068 E12.06175
G1 X41.158 Y78.524 E12.0856
G1 X41.776 Y77.866 E12.11562
G1 X42.247 Y77.434 E12.13688
G1 X42.789 Y76.968 E12.16065
G1 X43.499 Y76.41 E12.19069
G1 X44.027 Y76.056 E12.21183
G1 X44.626 Y75.681 E12.23534
G0 F6000 X44.429 Y75.333
G1 F1200 X45.24 Y74.875 E12.26631
G1 X45.809 Y74.607 E12.28723
G1 X46.465 Y74.322 E12.31102
G1 X47.334 Y73.99 E12.34196
G1 X47.848 Y73.834 E12.35983
G1 X48.341 Y73.698 E12.37684
G1 X49.347 Y73.473 E12.41112
G1 X50.021 Y73.357 E12.43387
G1 X51.346 Y73.215 E12.47819
G1 X51.986 Y73.188 E12.4995
G1 X52.43 Y73.179 E12.51427
G1 X167.448 Y73.182 E16.33978
G1 X168.232 Y73.195 E16.36586
G1 X169.18 Y73.253 E16.39745
G1 X169.547 Y73.293 E16.40973
G1 X170.212 Y73.387 E16.43207
G1 X170.68 Y73.468 E16.44787
G1 X171.562 Y73.661 E16.4779
G1 X172.12 Y73.825 E16.49724
G1 X172.774 Y74.037 E16.52011
G1 X173.84 Y74.447 E16.55809
G1 X174.24 Y74.627 E16.57268
G1 X175.051 Y75.035 E16.60288
G1 X175.356 Y75.205 E16.61449
G1 X175.849 Y75.497 E16.63355
G1 X176.156 Y75.692 E16.64565
G1 X177.13 Y76.39 E16.6855
G1 X177.523 Y76.707 E16.70229
G1 X178.021 Y77.136 E16.72416
G1 X178.315 Y77.406 E16.73743
G1 X179.128 Y78.242 E16.77622
G1 X179.562 Y78.743 E16.79826
G1 X180.281 Y79.676 E16.83744
G1 X180.473 Y79.956 E16.84873
G1 X180.92 Y80.67 E16.87675
G1 X181.19 Y81.143 E16.89487
G1 X181.637 Y82.018 E16.92755
G1 X181.851 Y82.491 E16.94481
G1 X182.196 Y83.355 E16.97576
G1 X182.34 Y83.798 E16.99125
G1 X182.494 Y84.31 E17.00903
G1 X182.67 Y84.975 E17.03191
G1 X182.738 Y85.273 E17.04208
G1 X182.881 Y86.025 E17.06754
G1 X182.946 Y86.449 E17.08181
G1 X183.029 Y87.135 E17.10479
G1 X183.052 Y87.409 E17.11393
G1 X183.089 Y88.341 E17.14496
G1 X183.087 Y88.855 E17.16205
G1 X183.047 Y89.715 E17.19069
G1 X182.987 Y90.389 E17.21319
G1 X182.981 Y90.542 E17.21829
G1 X182.808 Y92.432 E17.28141
G1 X182.652 Y94.929 E17.36462
G1 X182.565 Y97.462 E17.44892
G1 X182.549 Y100.022 E17.53407
G1 X182.605 Y102.513 E17.61694
G1 X182.732 Y105.043 E17.70119
G1 X182.932 Y107.586 E17.78604
G1 X183.053 Y108.896 E17.82979
G1 X183.089 Y109.795 E17.85972
G1 X183.087 Y110.293 E17.87628
G1 X183.029 Y111.371 E17.91219
G1 X182.979 Y111.835 E17.92771
G1 X182.891 Y112.468 E17.94896
G1 X182.84 Y112.769 E17.95912
G1 X182.649 Y113.658 E17.98936
G1 X182.571 Y113.956 E17.99961
G1 X182.353 Y114.683 E18.02485
G1 X182.155 Y115.265 E18.0453
G1 X181.649 Y116.494 E18.0895
G1 X181.438 Y116.927 E18.10552
G1 X180.982 Y117.764 E18.13723
G1 X180.819 Y118.034 E18.14772
G1 X180.318 Y118.786 E18.17777
G1 X179.935 Y119.311 E18.19938
G1 X179.061 Y120.36 E18.2448
G1 X178.678 Y120.764 E18.26331
G1 X178.028 Y121.391 E18.29335
G1 X177.572 Y121.773 E18.31314
G1 X176.908 Y122.297 E18.34127
G1 X175.778 Y123.073 E18.38686
G1 X175.383 Y123.308 E18.40215
G1 X174.186 Y123.921 E18.44688
G1 X173.53 Y124.206 E18.47067
G1 X172.686 Y124.528 E18.50071
G1 X172.122 Y124.7 E18.52032
G1 X171.49 Y124.873 E18.54212
G1 X170.269 Y125.131 E18.58362
G1 X169.758 Y125.207 E18.60081
G1 X168.454 Y125.319 E18.64434
G1 X166.873 Y125.35 E18.69693
G1 X52.566 Y125.343 E22.4988
G1 X51.993 Y125.335 E22.51786
G1 X51.275 Y125.3 E22.54177
G1 X50.581 Y125.241 E22.56493
G1 X49.365 Y125.065 E22.6058
G1 X49.041 Y124.998 E22.6168
G1 X48.45 Y124.86 E22.63699
G1 X48.138 Y124.777 E22.64773
G1 X47.354 Y124.535 E22.67502
G1 X46.976 Y124.403 E22.68833
G1 X46.191 Y124.09 E22.71644
G1 X45.785 Y123.909 E22.73123
G1 X44.997 Y123.517 E22.7605
G1 X44.659 Y123.331 E22.77333
G1 X43.583 Y122.647 E22.81574
G1 X42.925 Y122.169 E22.84279
G1 X42.079 Y121.489 E22.87889
G1 X41.346 Y120.784 E22.91272
G1 X40.933 Y120.35 E22.93264
G1 X40.338 Y119.676 E22.96254
G1 X39.712 Y118.841 E22.99726
G1 X39.463 Y118.475 E23.01198
G1 X38.87 Y117.493 E23.05013
G1 X38.567 Y116.922 E23.07163
G1 X38.047 Y115.782 E23.11331
G1 X37.806 Y115.157 E23.13559
G1 X37.518 Y114.301 E23.16563
G1 X37.373 Y113.742 E23.18483
G1 X37.267 Y113.282 E23.20053
G1 X37.122 Y112.529 E23.22604
G1 X37.053 Y112.074 E23.24135
G1 X36.969 Y111.36 E23.26526
G1 X36.945 Y111.064 E23.27513
G1 X36.91 Y110.141 E23.30586
G1 X36.913 Y109.649 E23.32222
G1 X36.952 Y108.824 E23.34969
G1 X37.198 Y106.014 E23.44351
G1 X37.354 Y103.456 E23.52875
G1 X37.437 Y100.96 E23.61181
G1 X37.449 Y98.4 E23.69696
G1 X37.389 Y95.881 E23.78076
G1 X37.261 Y93.408 E23.86312
G1 X37.057 Y91.069 E23.94122
G1 X37.046 Y90.803 E23.95007
G1 X36.941 Y89.558 E23.99163
G1 X36.907 Y88.491 E24.02713
G1 X36.916 Y88.042 E24.04207
G1 X36.967 Y87.19 E24.07046
G1 X36.998 Y86.888 E24.08056
G1 X37.109 Y86.093 E24.10725
G1 X37.214 Y85.511 E24.12692
G1 X37.47 Y84.41 E24.16452
G1 X37.758 Y83.528 E24.19538
G1 X37.995 Y82.884 E24.2182
G1 X38.481 Y81.771 E24.2586
G1 X38.693 Y81.355 E24.27413
G1 X39.094 Y80.636 E24.30151
G1 X39.426 Y80.108 E24.32225
G1 X39.619 Y79.819 E24.33381
G1 X40.387 Y78.807 E24.37607
G1 X40.866 Y78.25 E24.4005
G1 X41.484 Y77.592 E24.43052
G1 X41.986 Y77.131 E24.45319
G1 X42.542 Y76.654 E24.47756
G1 X43.276 Y76.078 E24.50859
G1 X43.815 Y75.717 E24.53017
G1 X44.429 Y75.333 E24.55425
G1 F1500 E18.55425
;MESH:RAKTracker-Brace.stl(1)
G0 F6000 X49.604 Y83.803
G0 X53.766 Y91.634
;TYPE:WALL-OUTER
G1 F1500 E24.55425
G1 F1200 X53.131 Y91.869 E24.57677
G1 X52.688 Y91.947 E24.59174
G1 X52.35 Y91.972 E24.60301
G1 X51.779 Y91.951 E24.62201
G1 X51.117 Y91.791 E24.64466
G1 X50.598 Y91.554 E24.66364
G1 X50.291 Y91.364 E24.67565
G1 X50.01 Y91.149 E24.68742
G1 X49.77 Y90.923 E24.69838
G1 X49.547 Y90.671 E24.70957
G1 X49.345 Y90.384 E24.72125
G1 X49.107 Y89.962 E24.73736
G1 X48.955 Y89.547 E24.75206
G1 X48.851 Y89.119 E24.76671
G1 X48.793 Y88.629 E24.78312
G1 X48.826 Y88.095 E24.80092
G1 X48.892 Y87.738 E24.81299
G1 X49.018 Y87.291 E24.82844
G1 X49.276 Y86.774 E24.84766
G1 X49.446 Y86.513 E24.85802
G1 X49.673 Y86.23 E24.87008
G1 X49.914 Y85.987 E24.88147
G1 X50.171 Y85.772 E24.89261
G1 X50.469 Y85.57 E24.90458
G1 X50.875 Y85.352 E24.91991
G1 X51.323 Y85.202 E24.93562
G1 X51.643 Y85.129 E24.94654
G1 X52.089 Y85.079 E24.96147
G1 X52.574 Y85.082 E24.9776
G1 X53.034 Y85.165 E24.99315
G1 X53.538 Y85.313 E25.01062
G1 X54.064 Y85.591 E25.03041
G1 X54.345 Y85.784 E25.04174
G1 X54.612 Y86.009 E25.05336
G1 X54.922 Y86.333 E25.06827
G1 X55.199 Y86.733 E25.08445
G1 X55.449 Y87.209 E25.10234
G1 X55.652 Y87.894 E25.1261
G1 X55.695 Y88.339 E25.14097
G1 X55.695 Y88.709 E25.15327
G1 X55.664 Y89.021 E25.1637
G1 X55.534 Y89.612 E25.18383
G1 X55.276 Y90.202 E25.20525
G1 X54.93 Y90.699 E25.22539
G1 X54.713 Y90.941 E25.2362
G1 X54.35 Y91.273 E25.25256
G1 X53.766 Y91.634 E25.2754
G1 F1500 E19.2754
G0 F6000 X53.944 Y92.101
G0 X52.295 Y92.521
G0 X52.824 Y92.539
G0 X91.657 Y92.548
G0 X92.375 Y92.522
G0 X93.282 Y92.351
G0 X93.131 Y91.869
G1 F1500 E25.2754
G1 F1200 X92.688 Y91.947 E25.29036
G1 X92.35 Y91.972 E25.30163
G1 X91.751 Y91.946 E25.32157
G1 X91.08 Y91.778 E25.34458
G1 X90.584 Y91.546 E25.36279
G1 X90.291 Y91.364 E25.37426
G1 X90.01 Y91.149 E25.38603
G1 X89.783 Y90.937 E25.39636
G1 X89.537 Y90.658 E25.40873
G1 X89.345 Y90.384 E25.41986
G1 X89.121 Y89.992 E25.43488
G1 X88.951 Y89.533 E25.45116
G1 X88.849 Y89.104 E25.46582
G1 X88.794 Y88.655 E25.48087
G1 X88.826 Y88.103 E25.49926
G1 X88.892 Y87.738 E25.5116
G1 X89.025 Y87.275 E25.52762
G1 X89.264 Y86.794 E25.54548
G1 X89.446 Y86.513 E25.55662
G1 X89.681 Y86.222 E25.56906
G1 X89.914 Y85.987 E25.58007
G1 X90.171 Y85.772 E25.59121
G1 X90.469 Y85.57 E25.60318
G1 X90.859 Y85.36 E25.61792
G1 X91.323 Y85.202 E25.63422
G1 X91.653 Y85.127 E25.64548
G1 X92.076 Y85.08 E25.65963
G1 X92.573 Y85.082 E25.67616
G1 X93.034 Y85.165 E25.69174
G1 X93.538 Y85.313 E25.70921
G1 X94.064 Y85.591 E25.729
G1 X94.345 Y85.784 E25.74034
G1 X94.612 Y86.009 E25.75195
G1 X94.922 Y86.333 E25.76687
G1 X95.199 Y86.733 E25.78305
G1 X95.449 Y87.209 E25.80093
G1 X95.652 Y87.894 E25.82469
G1 X95.695 Y88.339 E25.83956
G1 X95.695 Y88.709 E25.85187
G1 X95.664 Y89.021 E25.8623
G1 X95.534 Y89.612 E25.88242
G1 X95.276 Y90.202 E25.90384
G1 X94.93 Y90.699 E25.92398
G1 X94.713 Y90.941 E25.93479
G1 X94.35 Y91.273 E25.95116
G1 X93.766 Y91.634 E25.97399
G1 X93.131 Y91.869 E25.99651
G1 F1500 E19.99651
G0 F6000 X93.282 Y92.351
G0 X92.765 Y92.466
G0 X92.295 Y92.522
G0 X92.813 Y92.541
G0 X127.158 Y92.549
G0 X127.875 Y92.523
G0 X127.18 Y92.237
G0 X127.251 Y91.946
G1 F1500 E25.99651
G1 F1200 X126.58 Y91.778 E26.01952
G1 X126.084 Y91.546 E26.03773
G1 X125.807 Y91.375 E26.04856
G1 X125.51 Y91.149 E26.06097
G1 X125.283 Y90.937 E26.0713
G1 X125.037 Y90.658 E26.08367
G1 X124.845 Y90.384 E26.0948
G1 X124.621 Y89.992 E26.10982
G1 X124.451 Y89.533 E26.1261
G1 X124.349 Y89.104 E26.14076
G1 X124.294 Y88.655 E26.15581
G1 X124.326 Y88.103 E26.1742
G1 X124.392 Y87.739 E26.1865
G1 X124.525 Y87.276 E26.20253
G1 X124.776 Y86.774 E26.22119
G1 X124.946 Y86.513 E26.23155
G1 X125.181 Y86.222 E26.24399
G1 X125.414 Y85.987 E26.255
G1 X125.671 Y85.772 E26.26614
G1 X125.969 Y85.57 E26.27812
G1 X126.359 Y85.36 E26.29285
G1 X126.823 Y85.202 E26.30915
G1 X127.153 Y85.127 E26.32041
G1 X127.576 Y85.08 E26.33457
G1 X128.073 Y85.082 E26.3511
G1 X128.534 Y85.165 E26.36668
G1 X129.038 Y85.313 E26.38415
G1 X129.564 Y85.591 E26.40393
G1 X129.845 Y85.784 E26.41527
G1 X130.112 Y86.009 E26.42689
G1 X130.422 Y86.333 E26.4418
G1 X130.699 Y86.734 E26.45801
G1 X130.949 Y87.21 E26.47589
G1 X131.152 Y87.894 E26.49962
G1 X131.195 Y88.339 E26.51449
G1 X131.195 Y88.709 E26.5268
G1 X131.164 Y89.021 E26.53723
G1 X131.034 Y89.612 E26.55735
G1 X130.776 Y90.202 E26.57877
G1 X130.43 Y90.699 E26.59891
G1 X130.213 Y90.941 E26.60972
G1 X129.85 Y91.273 E26.62609
G1 X129.266 Y91.634 E26.64892
G1 X128.631 Y91.869 E26.67144
G1 X128.188 Y91.947 E26.6864
G1 X127.85 Y91.972 E26.69767
G1 X127.251 Y91.946 E26.71762
G1 F1500 E20.71762
G0 F6000 X127.18 Y92.237
G0 X128.265 Y92.467
G0 X127.795 Y92.523
G0 X166.283 Y92.573
G0 X166.58 Y91.778
G1 F1500 E26.71762
G1 F1200 X166.084 Y91.546 E26.73583
G1 X165.791 Y91.364 E26.7473
G1 X165.51 Y91.149 E26.75907
G1 X165.283 Y90.937 E26.7694
G1 X165.037 Y90.658 E26.78177
G1 X164.845 Y90.384 E26.7929
G1 X164.621 Y89.992 E26.80792
G1 X164.451 Y89.533 E26.8242
G1 X164.349 Y89.104 E26.83886
G1 X164.294 Y88.655 E26.85391
G1 X164.326 Y88.103 E26.8723
G1 X164.392 Y87.738 E26.88463
G1 X164.525 Y87.275 E26.90066
G1 X164.764 Y86.794 E26.91852
G1 X164.946 Y86.513 E26.92966
G1 X165.181 Y86.222 E26.9421
G1 X165.414 Y85.987 E26.9531
G1 X165.671 Y85.772 E26.96425
G1 X165.969 Y85.57 E26.97622
G1 X166.359 Y85.36 E26.99095
G1 X166.823 Y85.202 E27.00726
G1 X167.153 Y85.127 E27.01851
G1 X167.576 Y85.08 E27.03267
G1 X168.074 Y85.082 E27.04923
G1 X168.522 Y85.162 E27.06437
G1 X169.06 Y85.32 E27.08302
G1 X169.564 Y85.591 E27.10205
G1 X169.845 Y85.784 E27.11339
G1 X170.109 Y86.004 E27.12482
G1 X170.431 Y86.342 E27.14035
G1 X170.687 Y86.713 E27.15534
G1 X170.954 Y87.22 E27.1744
G1 X171.15 Y87.878 E27.19723
G1 X171.196 Y88.351 E27.21304
G1 X171.195 Y88.709 E27.22495
G1 X171.163 Y89.031 E27.23571
G1 X171.044 Y89.582 E27.25446
G1 X170.774 Y90.209 E27.27716
